X:3660
T:Custy's
M:6/8
L:1/8
R:jig
D:Michael McGoldrick: Morning Rory
Z:Devin McCabe
K:AMin
B|:cde AGE|GAB ~A3|eag edc|(d~e2 AGE|
!c2e dcA|~G3 Gcd|eag edc|1dBG A2B:|2dBG Aeg|
!:a3 ged|edg edc|~A3 GAc|dec deg|
!aeg dec|~A3 GEG|cde ged|1cAG Aeg:|2cAG A2B||


